assets/illustrations/default/professional-4.svg

<svg xmlns="http://www.w3.org/2000/svg" width="1080" height="1081" fill="none"><path fill="#FCAA73" d="m1037.09 363.791-53.71 51.123 37.53-88.98-14.07-11.001-48.698 77.817 21.679-113.247-18.443-5.986-40.769 108.393 2.912-96.26-19.091-3.235-35.106 151.589-34.136-51.608-14.237 4.206L854.44 494.51l-8.898 36.401 120.204 31.71 37.374-115.998 46.59-70.699z"/><path fill="#141414" d="M377.346 379.16H271.379c-12.942 0-23.458-10.516-23.458-23.458V214.466c0-12.942 10.516-23.458 23.458-23.458h105.967c12.943 0 23.459 10.516 23.459 23.458v141.236c0 12.942-10.516 23.458-23.459 23.458"/><path fill="#FCAA73" d="M537.832 113.514H359.549l-13.59 13.589v335.374h131.69v-53.712h60.183l13.59-13.589V127.265z"/><path fill="#141414" d="m359.55 113.514-13.59 13.589-.971 153.693.971.647 136.058-136.544 69.405 83.642V127.103l-13.59-13.589z"/><path fill="#FCAA73" d="M329.781 335.155h37.372V276.59h-50.638v45.299c-.162 7.28 5.824 13.266 13.266 13.266"/><path fill="url(#a)" d="M376.375 335.154h-30.577v71.184h30.577z"/><path fill="url(#b)" d="M431.057 427.371h46.431v-18.605h-46.431z"/><path fill="#F06305" fill-rule="evenodd" d="M497.871 259.807a2.427 2.427 0 0 1 3.197 1.25l30.091 68.757a2.428 2.428 0 0 1-2.223 3.4H495.77a2.427 2.427 0 0 1 0-4.854h29.455l-28.604-65.357a2.427 2.427 0 0 1 1.25-3.196" clip-rule="evenodd"/><path fill="#F06305" d="m828.716 508.746-46.27 130.235-85.42-113.086c-26.371-34.944-67.625-55.491-111.306-55.491H477.488V427.37h-131.69v43.034l-21.355 6.957-145.927 48.049c-48.697 16.016-84.774 57.432-93.834 107.908L30 938.762h634.508v-76.361l43.357 61.962c48.373 68.919 154.825 52.094 179.416-28.473L991.63 553.883z"/><path fill="url(#c)" d="m268.789 733.138-35.753 205.624h280.853z"/><path fill="url(#d)" d="M664.346 862.4V643.024l76.522 311.592s-13.427-8.089-22.972-17.958-53.55-74.258-53.55-74.258"/><path fill="url(#e)" d="m782.446 638.981-45.784 130.396 18.443-166.635z"/><path fill="url(#f)" d="m674.054 722.622-142.206 5.824c-8.898.323-15.855 7.927-15.531 16.825l3.073 75.228c.324 8.898 7.928 15.855 16.826 15.532l142.206-5.825c8.898-.323 15.854-7.927 15.531-16.825l-3.074-75.228c-.324-9.06-7.766-16.017-16.825-15.531"/><path fill="#C5D9FB" d="M570.352 817.266c19.299 0 34.944-15.646 34.944-34.945 0-19.3-15.645-34.945-34.944-34.945s-34.945 15.645-34.945 34.945c0 19.299 15.645 34.945 34.945 34.945"/><path fill="#1968F0" d="M570.584 784.216c6.874-.281 12.24-5.575 11.984-11.824-.255-6.25-6.035-11.088-12.91-10.807-6.874.281-12.24 5.575-11.984 11.824.255 6.25 6.035 11.088 12.91 10.807M571.808 817.265c9.707-.324 18.443-4.854 24.267-11.649-4.045-10.03-14.075-16.987-25.4-16.501-11.486.485-20.87 8.251-24.105 18.605 6.471 6.147 15.531 9.868 25.238 9.545M674.378 797.364l-50.476 2.104c-2.912.161-5.501-2.103-5.501-5.177l-.485-13.428c-.162-2.912 2.103-5.501 5.177-5.501l50.476-2.103c2.912-.162 5.5 2.103 5.5 5.177l.486 13.428c.161 2.912-2.103 5.339-5.177 5.5"/><path fill="#C5D9FB" d="m650.757 768.245-30.577 1.294c-1.618 0-2.912-1.132-2.912-2.75l-.162-2.912c0-1.618 1.132-2.912 2.75-2.912l30.577-1.294c1.618 0 2.912 1.132 2.912 2.75l.162 2.912c.162 1.618-1.133 2.912-2.75 2.912"/><path fill="#A3A3A3" d="m634.901 711.943-64.551 2.589c-2.75.161-4.692 2.426-4.692 5.015l.486 12.943c.161 2.75 2.426 4.691 5.015 4.691l64.551-2.588c2.75-.162 4.691-2.427 4.691-5.016l-.485-12.942c-.162-2.75-2.427-4.853-5.015-4.692"/><defs><linearGradient id="a" x1="389.824" x2="307.772" y1="377.742" y2="357.71" gradientUnits="userSpaceOnUse"><stop stop-color="#F8BC9A" stop-opacity="0"/><stop offset=".107" stop-color="#F7B48D" stop-opacity=".138"/><stop offset=".303" stop-color="#F6A06C" stop-opacity=".391"/><stop offset=".565" stop-color="#F38035" stop-opacity=".729"/><stop offset=".776" stop-color="#F06305"/></linearGradient><linearGradient id="b" x1="434.735" x2="474.923" y1="446.648" y2="387.93" gradientUnits="userSpaceOnUse"><stop stop-color="#F8BC9A" stop-opacity="0"/><stop offset=".162" stop-color="#F8BA96" stop-opacity=".162"/><stop offset=".326" stop-color="#F7B28A" stop-opacity=".326"/><stop offset=".492" stop-color="#F6A675" stop-opacity=".492"/><stop offset=".658" stop-color="#F59559" stop-opacity=".658"/><stop offset=".825" stop-color="#F37F34" stop-opacity=".825"/><stop offset=".99" stop-color="#F06508" stop-opacity=".99"/><stop offset="1" stop-color="#F06305"/></linearGradient><linearGradient id="c" x1="419.404" x2="225.746" y1="806.524" y2="1010" gradientUnits="userSpaceOnUse"><stop offset=".145" stop-color="#F06305"/><stop offset=".311" stop-color="#E15D05"/><stop offset=".631" stop-color="#B94C04"/><stop offset=".942" stop-color="#8C3A03"/></linearGradient><linearGradient id="d" x1="770.292" x2="571.072" y1="784.984" y2="825.804" gradientUnits="userSpaceOnUse"><stop offset=".338" stop-color="#F06305"/><stop offset=".425" stop-color="#E15D05"/><stop offset=".591" stop-color="#B94C04"/><stop offset=".753" stop-color="#8C3A03"/></linearGradient><linearGradient id="e" x1="742.336" x2="795.326" y1="685.796" y2="689.6" gradientUnits="userSpaceOnUse"><stop offset=".069" stop-color="#F06305"/><stop offset=".257" stop-color="#E15D05"/><stop offset=".617" stop-color="#B94C04"/><stop offset=".967" stop-color="#8C3A03"/></linearGradient><linearGradient id="f" x1="689.986" x2="528.217" y1="836.01" y2="727.767" gradientUnits="userSpaceOnUse"><stop stop-color="#C5D9FB"/><stop offset=".184" stop-color="#D9E4F9"/><stop offset=".407" stop-color="#E9EEF7"/><stop offset=".66" stop-color="#F2F3F5"/><stop offset="1" stop-color="#F5F5F5"/></linearGradient></defs></svg>

<svg width="1080" height="1081" viewBox="0 0 1080 1081" fill="none" xmlns="http://www.w3.org/2000/svg">
<path d="M1037.09 363.791L983.38 414.914L1020.91 325.934L1006.84 314.933L958.142 392.75L979.821 279.503L961.378 273.517L920.609 381.91L923.521 285.65L904.43 282.415L869.324 434.004L835.188 382.396L820.951 386.602L854.44 494.51L845.542 530.911L965.746 562.621L1003.12 446.623L1049.71 375.924L1037.09 363.791Z" fill="#FCAA73"/>
<path d="M377.346 379.16H271.379C258.437 379.16 247.921 368.644 247.921 355.702V214.466C247.921 201.524 258.437 191.008 271.379 191.008H377.346C390.289 191.008 400.805 201.524 400.805 214.466V355.702C400.805 368.644 390.289 379.16 377.346 379.16Z" fill="#141414"/>
<path d="M537.832 113.514H359.549L345.959 127.103V462.477H477.649V408.765H537.832C543.171 403.426 546.083 400.514 551.422 395.176V127.265L537.832 113.514Z" fill="#FCAA73"/>
<path d="M359.55 113.514L345.96 127.103L344.989 280.796L345.96 281.443L482.018 144.899L551.423 228.541V127.103L537.833 113.514H359.55Z" fill="#141414"/>
<path d="M329.781 335.155H367.153V276.59H316.515V321.889C316.353 329.169 322.339 335.155 329.781 335.155Z" fill="#FCAA73"/>
<path d="M376.375 335.154H345.798V406.338H376.375V335.154Z" fill="url(#paint0_linear_18735_2933)"/>
<path d="M431.057 427.371H477.488V408.766H431.057V427.371Z" fill="url(#paint1_linear_18735_2933)"/>
<path fill-rule="evenodd" clip-rule="evenodd" d="M497.871 259.807C499.099 259.269 500.53 259.829 501.068 261.057L531.159 329.814C531.487 330.564 531.415 331.43 530.967 332.115C530.518 332.801 529.755 333.214 528.936 333.214H495.77C494.43 333.214 493.344 332.127 493.344 330.787C493.344 329.447 494.43 328.36 495.77 328.36H525.225L496.621 263.003C496.084 261.775 496.644 260.344 497.871 259.807Z" fill="#F06305"/>
<path d="M828.716 508.746L782.446 638.981L697.026 525.895C670.655 490.951 629.401 470.404 585.72 470.404H477.488V427.37H345.798V470.404L324.443 477.361L178.516 525.41C129.819 541.426 93.742 582.842 84.6823 633.318L30 938.762H664.508V862.401L707.865 924.363C756.238 993.282 862.69 976.457 887.281 895.89L991.63 553.883L828.716 508.746Z" fill="#F06305"/>
<path d="M268.789 733.138L233.036 938.762H513.889L268.789 733.138Z" fill="url(#paint2_linear_18735_2933)"/>
<path d="M664.346 862.4V643.024L740.869 954.616C740.869 954.616 727.441 946.527 717.896 936.658C708.35 926.789 664.346 862.4 664.346 862.4Z" fill="url(#paint3_linear_18735_2933)"/>
<path d="M782.446 638.981L736.662 769.377L755.105 602.742L782.446 638.981Z" fill="url(#paint4_linear_18735_2933)"/>
<path d="M674.054 722.622L531.848 728.446C522.95 728.769 515.993 736.373 516.317 745.271L519.39 820.499C519.714 829.397 527.318 836.354 536.216 836.031L678.422 830.206C687.32 829.883 694.276 822.279 693.953 813.381L690.879 738.153C690.555 729.093 683.113 722.136 674.054 722.622Z" fill="url(#paint5_linear_18735_2933)"/>
<path d="M570.352 817.266C589.651 817.266 605.296 801.62 605.296 782.321C605.296 763.021 589.651 747.376 570.352 747.376C551.052 747.376 535.407 763.021 535.407 782.321C535.407 801.62 551.052 817.266 570.352 817.266Z" fill="#C5D9FB"/>
<path d="M570.584 784.216C577.458 783.935 582.824 778.641 582.568 772.392C582.313 766.142 576.533 761.304 569.658 761.585C562.784 761.866 557.418 767.16 557.674 773.409C557.929 779.659 563.709 784.497 570.584 784.216Z" fill="#1968F0"/>
<path d="M571.808 817.265C581.515 816.941 590.251 812.411 596.075 805.616C592.03 795.586 582 788.629 570.675 789.115C559.189 789.6 549.805 797.366 546.57 807.72C553.041 813.867 562.101 817.588 571.808 817.265Z" fill="#1968F0"/>
<path d="M674.378 797.364L623.902 799.468C620.99 799.629 618.401 797.365 618.401 794.291L617.916 780.863C617.754 777.951 620.019 775.362 623.093 775.362L673.569 773.259C676.481 773.097 679.069 775.362 679.069 778.436L679.555 791.864C679.716 794.776 677.452 797.203 674.378 797.364Z" fill="#1968F0"/>
<path d="M650.757 768.245L620.18 769.539C618.562 769.539 617.268 768.407 617.268 766.789L617.106 763.877C617.106 762.259 618.238 760.965 619.856 760.965L650.433 759.671C652.051 759.671 653.345 760.803 653.345 762.421L653.507 765.333C653.669 766.951 652.374 768.245 650.757 768.245Z" fill="#C5D9FB"/>
<path d="M634.901 711.943L570.35 714.532C567.6 714.693 565.658 716.958 565.658 719.547L566.144 732.49C566.305 735.24 568.57 737.181 571.159 737.181L635.71 734.593C638.46 734.431 640.401 732.166 640.401 729.577L639.916 716.635C639.754 713.885 637.489 711.782 634.901 711.943Z" fill="#A3A3A3"/>
<defs>
<linearGradient id="paint0_linear_18735_2933" x1="389.824" y1="377.742" x2="307.772" y2="357.71" gradientUnits="userSpaceOnUse">
<stop stop-color="#F8BC9A" stop-opacity="0"/>
<stop offset="0.1066" stop-color="#F7B48D" stop-opacity="0.1375"/>
<stop offset="0.3031" stop-color="#F6A06C" stop-opacity="0.3906"/>
<stop offset="0.5652" stop-color="#F38035" stop-opacity="0.7285"/>
<stop offset="0.7758" stop-color="#F06305"/>
</linearGradient>
<linearGradient id="paint1_linear_18735_2933" x1="434.735" y1="446.648" x2="474.923" y2="387.93" gradientUnits="userSpaceOnUse">
<stop stop-color="#F8BC9A" stop-opacity="0"/>
<stop offset="0.1621" stop-color="#F8BA96" stop-opacity="0.1621"/>
<stop offset="0.3263" stop-color="#F7B28A" stop-opacity="0.3263"/>
<stop offset="0.4917" stop-color="#F6A675" stop-opacity="0.4917"/>
<stop offset="0.6578" stop-color="#F59559" stop-opacity="0.6578"/>
<stop offset="0.8246" stop-color="#F37F34" stop-opacity="0.8246"/>
<stop offset="0.9897" stop-color="#F06508" stop-opacity="0.9897"/>
<stop offset="1" stop-color="#F06305"/>
</linearGradient>
<linearGradient id="paint2_linear_18735_2933" x1="419.404" y1="806.524" x2="225.746" y2="1010" gradientUnits="userSpaceOnUse">
<stop offset="0.1453" stop-color="#F06305"/>
<stop offset="0.3114" stop-color="#E15D05"/>
<stop offset="0.6314" stop-color="#B94C04"/>
<stop offset="0.9417" stop-color="#8C3A03"/>
</linearGradient>
<linearGradient id="paint3_linear_18735_2933" x1="770.292" y1="784.984" x2="571.072" y2="825.804" gradientUnits="userSpaceOnUse">
<stop offset="0.3384" stop-color="#F06305"/>
<stop offset="0.4249" stop-color="#E15D05"/>
<stop offset="0.5914" stop-color="#B94C04"/>
<stop offset="0.7528" stop-color="#8C3A03"/>
</linearGradient>
<linearGradient id="paint4_linear_18735_2933" x1="742.336" y1="685.796" x2="795.326" y2="689.6" gradientUnits="userSpaceOnUse">
<stop offset="0.069479" stop-color="#F06305"/>
<stop offset="0.2567" stop-color="#E15D05"/>
<stop offset="0.6172" stop-color="#B94C04"/>
<stop offset="0.9668" stop-color="#8C3A03"/>
</linearGradient>
<linearGradient id="paint5_linear_18735_2933" x1="689.986" y1="836.01" x2="528.217" y2="727.767" gradientUnits="userSpaceOnUse">
<stop stop-color="#C5D9FB"/>
<stop offset="0.1836" stop-color="#D9E4F9"/>
<stop offset="0.4073" stop-color="#E9EEF7"/>
<stop offset="0.66" stop-color="#F2F3F5"/>
<stop offset="1" stop-color="#F5F5F5"/>
</linearGradient>
</defs>
</svg>
